X: 11094
T: Duddingston Castle
R: reel
M: 4/4
K: Amixolydian
g|fA A/A/A e2 (eg)|{g}f2(ef) dBBg|fA A/A/A e2 (eg)|fedB A/A/A A:|
(B|A)FAB ABde|fdgf edB(d|A)FAB ABde|fdef d/d/d (dB)|
(AF)AB ABde|fdgf edBd|AFAB Aaeg|TfedB A/A/A A||
g|Tf2Af e2 (eg)|Tf2ef dBBg|fAfA e2 (eg)|TfedB A/A/A A:|
(B|A)FGE FAde|fdgf edB(d|AF)GE FAde|fdef d/d/d d(B|
AF)GE FAde|fdgf edBd|AdA=c Bbag|TfedB A/A/A A||

